X:53
T:Dog Sledder's Reel
R:reel
C:Bruce Osborne - Jan. 2003
Z:abc by bosborne@kos.net
M:2/4
L:1/8
K:G
G/A/|BB/c/ B/A/G/E/|DB,/C/ DG/A/|BB/c/ B/A/G/B/|A/G/A/B/ AG/A/|\
BB/c/ B/A/G/E/|DB,/C/ DG/A/|B/A/G/B/ A/G/F/A/|G/B/A/F/ G:|
|:B/c/|d/g/f/g/ e/c/A/F/|G/F/G/A/ BB/c/|d/g/f/g/ b/g/d/B/|A/G/A/B/ AB/c/|\
d/g/f/g/ e/c/A/F/|G/F/G/A/ BB/c/|d/B/G/B/ c/A/F/A/|G/B/A/F/ G:|
